assets/icons/numbers/number_circle_3.svg

<svg viewBox="0 0 32 32" stroke="#3B69D1" fill="white" xmlns="http://www.w3.org/2000/svg">
<circle cx="16" cy="16" r="8" stroke-width="16" stroke="inherit" fill="none"/>
<path d="M20.0191 17.8C20.0191 16.568 19.3951 15.56 18.2591 14.984C19.0911 14.408 19.5391 13.528 19.5391 12.488C19.5391 10.648 18.0191 9.48 15.9711 9.48C14.1631 9.48 12.8991 10.264 12.0831 11.592L13.8431 12.68C14.3071 11.88 14.9151 11.4 15.8111 11.4C16.6911 11.4 17.3311 11.88 17.3311 12.728C17.3311 13.592 16.6431 14.12 15.6991 14.12H14.0031V16.04H15.8431C17.0271 16.04 17.8271 16.68 17.8271 17.704C17.8271 18.744 17.0111 19.4 15.9231 19.4C14.8191 19.4 14.0671 18.856 13.4431 17.624L11.5551 18.792C12.4671 20.392 13.8271 21.32 15.9391 21.32C18.2751 21.32 20.0191 19.928 20.0191 17.8Z" stroke="none" fill="inherit"/>
</svg>

<svg viewBox="0 0 32 32" stroke="#3B69D1" fill="#fff" xmlns="http://www.w3.org/2000/svg"><circle cx="16" cy="16" r="8" stroke-width="16" stroke="inherit" fill="none"/><path d="M20 17.8a3 3 0 0 0-1.7-2.8 3 3 0 0 0 1.2-2.5c0-1.9-1.5-3-3.5-3-1.8 0-3.1.8-4 2l1.8 1.2c.5-.8 1.1-1.3 2-1.3.9 0 1.5.5 1.5 1.3 0 .9-.7 1.4-1.6 1.4H14v2h1.8c1.2 0 2 .6 2 1.6s-.8 1.7-1.9 1.7c-1 0-1.8-.5-2.5-1.8l-1.8 1.2c.9 1.6 2.2 2.5 4.3 2.5 2.4 0 4.1-1.4 4.1-3.5Z" fill="inherit" stroke="none"/></svg>
